src/icons/svgs/16/calendar.svg

<svg width="16" height="16" viewBox="0 0 16 16" fill="none" xmlns="http://www.w3.org/2000/svg">
<path d="M2 13.6875C2 14.4121 2.57589 15 3.28572 15L12.7143 15C13.4241 15 14 14.4121 14 13.6875L14 6.25L2 6.25L2 13.6875ZM10.5714 8.4375C10.5714 8.19688 10.7643 8 11 8H11.8571C12.0929 8 12.2857 8.19687 12.2857 8.4375V9.3125C12.2857 9.55411 12.0939 9.75 11.8571 9.75H11C10.7643 9.75 10.5714 9.55313 10.5714 9.3125V8.4375ZM10.5714 11.9375C10.5714 11.6959 10.7633 11.5 11 11.5H11.8571C12.0939 11.5 12.2857 11.6959 12.2857 11.9375L12.2857 12.8125C12.2857 13.0541 12.0939 13.25 11.8571 13.25H11C10.7633 13.25 10.5714 13.0541 10.5714 12.8125L10.5714 11.9375ZM7.14286 8.4375C7.14286 8.19688 7.33571 8 7.57143 8H8.42857C8.66429 8 8.85714 8.19688 8.85714 8.4375V9.3125C8.85714 9.55411 8.6653 9.75 8.42857 9.75L7.57143 9.75C7.33572 9.75 7.14286 9.55313 7.14286 9.3125V8.4375ZM7.14286 11.9375C7.14286 11.6969 7.33572 11.5 7.57143 11.5L8.42857 11.5C8.66531 11.5 8.85714 11.6959 8.85714 11.9375V12.8125C8.85714 13.0541 8.66531 13.25 8.42857 13.25L7.57143 13.25C7.33572 13.25 7.14286 13.0531 7.14286 12.8125V11.9375ZM3.71429 8.4375C3.71429 8.19688 3.90607 8 4.14286 8H5C5.23572 8 5.42857 8.19688 5.42857 8.4375L5.42857 9.3125C5.42857 9.55313 5.23572 9.75 5 9.75H4.14286C3.90607 9.75 3.71429 9.55313 3.71429 9.3125L3.71429 8.4375ZM3.71429 11.9375C3.71429 11.6969 3.90607 11.5 4.14286 11.5H5C5.23572 11.5 5.42857 11.6969 5.42857 11.9375V12.8125C5.42857 13.0531 5.23572 13.25 5 13.25H4.14286C3.90607 13.25 3.71429 13.0531 3.71429 12.8125L3.71429 11.9375ZM12.7143 2.75L11.4286 2.75V1.85039C11.4286 1.39375 11.0429 1 10.5714 1C10.1 1 9.71429 1.39375 9.71429 1.85039L9.71429 2.75L6.28571 2.75L6.28571 1.85039C6.28571 1.39375 5.9 1 5.42857 1C4.95714 1 4.57143 1.39375 4.57143 1.85039L4.57143 2.75L3.28571 2.75C2.57562 2.75 2 3.33762 2 4.0625L2 5.375L14 5.375V4.0625C14 3.33762 13.4241 2.75 12.7143 2.75Z" fill="black"/>
</svg>

<svg width="16" height="16" viewBox="0 0 16 16" xmlns="http://www.w3.org/2000/svg">
    <path d="M2 13.688C2 14.412 2.576 15 3.286 15h9.428c.71 0 1.286-.588 1.286-1.313V6.25H2v7.438zm8.571-5.25c0-.241.193-.438.429-.438h.857c.236 0 .429.197.429.438v.874a.433.433 0 0 1-.429.438H11a.434.434 0 0 1-.429-.438v-.874zm0 3.5c0-.242.192-.438.429-.438h.857c.237 0 .429.196.429.438v.874a.433.433 0 0 1-.429.438H11a.433.433 0 0 1-.429-.438v-.874zm-3.428-3.5c0-.241.193-.438.428-.438h.858c.235 0 .428.197.428.438v.874a.433.433 0 0 1-.428.438H7.57a.434.434 0 0 1-.428-.438v-.874zm0 3.5c0-.241.193-.438.428-.438h.858c.236 0 .428.196.428.438v.874a.433.433 0 0 1-.428.438H7.57a.434.434 0 0 1-.428-.438v-.874zm-3.429-3.5c0-.241.192-.438.429-.438H5c.236 0 .429.197.429.438v.874A.435.435 0 0 1 5 9.75h-.857a.434.434 0 0 1-.429-.438v-.874zm0 3.5c0-.241.192-.438.429-.438H5c.236 0 .429.197.429.438v.874A.435.435 0 0 1 5 13.25h-.857a.434.434 0 0 1-.429-.438v-.874zm9-9.188H11.43v-.9a.864.864 0 0 0-.86-.85.864.864 0 0 0-.857.85v.9H6.286v-.9A.864.864 0 0 0 5.429 1a.864.864 0 0 0-.858.85v.9H3.286C2.576 2.75 2 3.338 2 4.063v1.312h12V4.062c0-.724-.576-1.312-1.286-1.312z"/>
</svg>
